X: 36434
T: Searcy County Rag
R: reel
M: 4/4
K: Cmajor
|:cd|ecAE GEAc|GEAc G2 cd|ecAE GEAc|1 GEAB c2:|2 GEAB c4||
|:g3 a g2 e2|egae g4|g^fga gfed|cdcB c4|
g3 a g2 e2|egae g4|c'2 (3eae gfed|c2 dB c4:|

